X:3335
T:Ach bleib bei uns, Herr Jesu Christ
T:BWV 253
T:O Stay with Us, Lord Jesus Christ
C:Johann Sebastian Bach
O:Germany
Z:Transcribed by Frank Nordberg - http://www.musicaviva.com

V:1 Program 1 6 up %Harpsichord
V:2 Program 1 6 merge down %Harpsichord
V:3 Program 1 6 bass up %Harpsichord
V:4 Program 1 6 bass merge down %Harpsichord
M:C
L:1/8
Q:1/4=96
K:A
V:1
c2|cde2 c2A2|B2c2 Hd2c2|B2A2 A3B|c2c2 BAB2|HA6c2|
V:2
A2|A2B2 A2A2|=GFE2 HF2E2|EDC2 F4|E2E2 E3D|HC6A2|
V:3
E2|E2E2 E2ED|D2A,2 HA,2A,2|G,2A,2 D4|CB,A,2 A,2G,2|HE,6E2|
V:4
A,,2|A,2G,2 A,2F,2|=G,2A,2 HD,2A,,2|E,2F,E, D,E,F,G,|A,2C,D, E,2E,2|HA,,6A,,2|

V:1
B2c2 A2F2|G2A2 HB2c2|A2A2 A3B|c2c2 BAB2|HA8|]
V:2
G2G2 FE^D2|E3^D HE2=F2|C2F2 E2FG|A2E2 E3D|HC8|]
V:3
EDC2 C2B,2|B,2A,2 HG,2G,2|A,2D2 CDCB,|A,2A,2 A,2G,2|HE,8|]
V:4
E,2=F,2 ^F,2B,A,|G,2F,2 HE,2C,2|F,E,F,G, A,B,A,G,|F,2C,D, E,2E,2|HA,,8|]

